X:1
T:[ID 3-1]
T:[ID 3-1]
T:Bezeichnung standardisiert: Menuett Menuet 36.
T:Urheber unbekannt Erstbeleg: 1767 (Datum in der schriftlichen Quelle) Datum in der hier transkribierten schriftlichen Quelle: 1775
C:Urheber unbekannt
C:Erstbeleg: 1767 (Datum in der schriftlichen Quelle)
C:Datum in der hier transkribierten schriftlichen Quelle: 1775
L:1/8
M:3/4
K:G
V:1 treble 
V:1
 B4 GB | (3BcB (3ABA G2 |{g} f4 de | (3fgf (3efe d2 | (bg)(gd)(dB) | (bg)(gd)(dB) | fg a2 g2 | %7
 g2 f4 :: f4 g2 | fefg a2 | g4 a2 | gfga b2 | (bg)(gd)(dB) | (bg)(gd)(dB) | (3BdB G2 DB, | %15
 D4 B,2 :| %16

